X: 1
T: Haggis, The
M: 4/4
L: 1/8
R: reel
K: Cmaj
(3EFG Gc GEEF|(3EFG GB c2ce|(3EFG Gc GcGE|1 (3DDD _BD F2GF:|2 (3DDD _BD F2Ff||
ecgc eccf|ecce f2fa|ecgc acgc|(3ddd _bd f2gf|
ecgc eccf|ecce fagf|ecdB cAGE|(3DDD _BD F2GF||
